static/img/kroki/2e014253fbc4d938d7495644f2c73833.svg

<?xml version="1.0" encoding="us-ascii" standalone="no"?><svg xmlns="http://www.w3.org/2000/svg" xmlns:xlink="http://www.w3.org/1999/xlink" contentStyleType="text/css" height="252px" preserveAspectRatio="none" style="width:543px;height:252px;" version="1.1" viewBox="0 0 543 252" width="543px" zoomAndPan="magnify"><defs/><g><!--class kubernetes_controller_revision--><g id="elem_kubernetes_controller_revision"><rect codeLine="22" fill="#3D176E" height="39.7891" id="kubernetes_controller_revision" rx="2.5" ry="2.5" style="stroke:#000D19;stroke-width:0.5;" width="300" x="7" y="206.58"/><ellipse cx="22" cy="226.4745" fill="#ADD1B2" rx="11" ry="11" style="stroke:#181818;stroke-width:1.0;"/><path d="M24.9688,232.1152 Q24.3906,232.412 23.75,232.5527 Q23.1094,232.7089 22.4063,232.7089 Q19.9063,232.7089 18.5781,231.0683 Q17.2656,229.412 17.2656,226.287 Q17.2656,223.162 18.5781,221.5058 Q19.9063,219.8495 22.4063,219.8495 Q23.1094,219.8495 23.75,220.0058 Q24.4063,220.162 24.9688,220.4589 L24.9688,223.1777 Q24.3438,222.5995 23.75,222.3339 Q23.1563,222.0527 22.5313,222.0527 Q21.1875,222.0527 20.5,223.1308 Q19.8125,224.1933 19.8125,226.287 Q19.8125,228.3808 20.5,229.4589 Q21.1875,230.5214 22.5313,230.5214 Q23.1563,230.5214 23.75,230.2558 Q24.3438,229.9745 24.9688,229.3964 L24.9688,232.1152 Z " fill="#000000"/><text fill="#D9B8FF" font-family="Helvetica" font-size="17" lengthAdjust="spacing" textLength="258" x="41" y="232.3598">kubernetes_controller_revision</text></g><!--class kubernetes_namespace--><g id="elem_kubernetes_namespace"><rect codeLine="24" fill="#3D176E" height="39.7891" id="kubernetes_namespace" rx="2.5" ry="2.5" style="stroke:#000D19;stroke-width:0.5;" width="239" x="174.5" y="7"/><ellipse cx="189.5" cy="26.8945" fill="#ADD1B2" rx="11" ry="11" style="stroke:#181818;stroke-width:1.0;"/><path d="M192.4688,32.5352 Q191.8906,32.832 191.25,32.9727 Q190.6094,33.1289 189.9063,33.1289 Q187.4063,33.1289 186.0781,31.4883 Q184.7656,29.832 184.7656,26.707 Q184.7656,23.582 186.0781,21.9258 Q187.4063,20.2695 189.9063,20.2695 Q190.6094,20.2695 191.25,20.4258 Q191.9063,20.582 192.4688,20.8789 L192.4688,23.5977 Q191.8438,23.0195 191.25,22.7539 Q190.6563,22.4727 190.0313,22.4727 Q188.6875,22.4727 188,23.5508 Q187.3125,24.6133 187.3125,26.707 Q187.3125,28.8008 188,29.8789 Q188.6875,30.9414 190.0313,30.9414 Q190.6563,30.9414 191.25,30.6758 Q191.8438,30.3945 192.4688,29.8164 L192.4688,32.5352 Z " fill="#000000"/><text fill="#D9B8FF" font-family="Helvetica" font-size="17" lengthAdjust="spacing" textLength="197" x="208.5" y="32.7798">kubernetes_namespace</text></g><!--class kubernetes_pod--><g id="elem_kubernetes_pod"><rect codeLine="26" fill="#3D176E" height="39.7891" id="kubernetes_pod" rx="2.5" ry="2.5" style="stroke:#000D19;stroke-width:0.5;" width="175" x="361.5" y="206.58"/><ellipse cx="376.5" cy="226.4745" fill="#ADD1B2" rx="11" ry="11" style="stroke:#181818;stroke-width:1.0;"/><path d="M379.4688,232.1152 Q378.8906,232.412 378.25,232.5527 Q377.6094,232.7089 376.9063,232.7089 Q374.4063,232.7089 373.0781,231.0683 Q371.7656,229.412 371.7656,226.287 Q371.7656,223.162 373.0781,221.5058 Q374.4063,219.8495 376.9063,219.8495 Q377.6094,219.8495 378.25,220.0058 Q378.9063,220.162 379.4688,220.4589 L379.4688,223.1777 Q378.8438,222.5995 378.25,222.3339 Q377.6563,222.0527 377.0313,222.0527 Q375.6875,222.0527 375,223.1308 Q374.3125,224.1933 374.3125,226.287 Q374.3125,228.3808 375,229.4589 Q375.6875,230.5214 377.0313,230.5214 Q377.6563,230.5214 378.25,230.2558 Q378.8438,229.9745 379.4688,229.3964 L379.4688,232.1152 Z " fill="#000000"/><text fill="#D9B8FF" font-family="Helvetica" font-size="17" lengthAdjust="spacing" textLength="133" x="395.5" y="232.3598">kubernetes_pod</text></g><!--class kubernetes_stateful_set--><g id="elem_kubernetes_stateful_set"><rect codeLine="28" fill="#3D176E" height="39.7891" id="kubernetes_stateful_set" rx="2.5" ry="2.5" style="stroke:#000D19;stroke-width:0.5;" width="243" x="172.5" y="106.79"/><ellipse cx="187.5" cy="126.6845" fill="#ADD1B2" rx="11" ry="11" style="stroke:#181818;stroke-width:1.0;"/><path d="M190.4688,132.3252 Q189.8906,132.622 189.25,132.7627 Q188.6094,132.9189 187.9063,132.9189 Q185.4063,132.9189 184.0781,131.2783 Q182.7656,129.622 182.7656,126.497 Q182.7656,123.372 184.0781,121.7158 Q185.4063,120.0595 187.9063,120.0595 Q188.6094,120.0595 189.25,120.2158 Q189.9063,120.372 190.4688,120.6689 L190.4688,123.3877 Q189.8438,122.8095 189.25,122.5439 Q188.6563,122.2627 188.0313,122.2627 Q186.6875,122.2627 186,123.3408 Q185.3125,124.4033 185.3125,126.497 Q185.3125,128.5908 186,129.6689 Q186.6875,130.7314 188.0313,130.7314 Q188.6563,130.7314 189.25,130.4658 Q189.8438,130.1845 190.4688,129.6064 L190.4688,132.3252 Z " fill="#000000"/><text fill="#D9B8FF" font-family="Helvetica" font-size="17" lengthAdjust="spacing" textLength="201" x="206.5" y="132.5698">kubernetes_stateful_set</text></g><!--link kubernetes_namespace to kubernetes_controller_revision--><g id="link_kubernetes_namespace_kubernetes_controller_revision"><path codeLine="30" d="M230.73,47.29 C202.3,59.52 171.48,78.5 155,106.79 C138.23,135.6 143.45,175.39 149.57,200.78 " fill="none" id="kubernetes_namespace-to-kubernetes_controller_revision" style="stroke:#1A83AF;stroke-width:2.0;"/><polygon fill="#1A83AF" points="150.96,205.28,152.6241,195.5727,149.7305,200.4335,144.8697,197.5399,150.96,205.28" style="stroke:#1A83AF;stroke-width:2.0;"/></g><!--link kubernetes_namespace to kubernetes_pod--><g id="link_kubernetes_namespace_kubernetes_pod"><path codeLine="31" d="M353.16,47.21 C381.85,59.67 414.12,78.86 433,106.79 C451.86,134.7 453.26,174.82 451.74,200.52 " fill="none" id="kubernetes_namespace-to-kubernetes_pod" style="stroke:#1A83AF;stroke-width:2.0;"/><polygon fill="#1A83AF" points="451.33,205.4,455.9628,196.7088,451.6873,200.4128,447.9833,196.1372,451.33,205.4" style="stroke:#1A83AF;stroke-width:2.0;"/></g><!--link kubernetes_namespace to kubernetes_stateful_set--><g id="link_kubernetes_namespace_kubernetes_stateful_set"><path codeLine="32" d="M294,47.22 C294,62.49 294,83.92 294,100.53 " fill="none" id="kubernetes_namespace-to-kubernetes_stateful_set" style="stroke:#1A83AF;stroke-width:2.0;"/><polygon fill="#1A83AF" points="294,105.41,298,96.41,294,100.41,290,96.41,294,105.41" style="stroke:#1A83AF;stroke-width:2.0;"/></g><!--link kubernetes_stateful_set to kubernetes_controller_revision--><g id="link_kubernetes_stateful_set_kubernetes_controller_revision"><path codeLine="33" d="M266.93,147.01 C244.42,163.08 212.33,185.98 188.63,202.9 " fill="none" id="kubernetes_stateful_set-to-kubernetes_controller_revision" style="stroke:#1A83AF;stroke-width:2.0;"/><polygon fill="#1A83AF" points="185.01,206.2,194.6566,204.2142,189.0758,203.2898,190.0002,197.709,185.01,206.2" style="stroke:#1A83AF;stroke-width:2.0;"/></g><!--link kubernetes_stateful_set to kubernetes_pod--><g id="link_kubernetes_stateful_set_kubernetes_pod"><path codeLine="34" d="M324.62,147.01 C350.2,163.15 386.7,186.17 413.55,203.11 " fill="none" id="kubernetes_stateful_set-to-kubernetes_pod" style="stroke:#1A83AF;stroke-width:2.0;"/><polygon fill="#1A83AF" points="417.44,206.2,411.9676,198.0114,413.2129,203.5295,407.6948,204.7748,417.44,206.2" style="stroke:#1A83AF;stroke-width:2.0;"/></g><!--SRC=[dP9DJm8n48Rl_8ecd4bOYIvSJ5OIeXTYn9inf6odq6ottKnd8MZyxtP1JTqF4AzzdyuyRzED4i0WBsZFSiXNWAxdCcKAZZnd2QBTJQssoFfISZcAw-7C6ZeBp7aEx1xq5aYbl4uyRrIQ6N2ENGNH7K-pDThIYEDuGcwSZy1GG4qrTouXGhKg2G8PCLcDfQoJzQ7zaOZY6sXW5WNW5p8S3aKqgIDdLvti_KCir1kmA7oqkILeQ3PM7AYJbXKHI3QAVkUTZezS26NMx3euUpeweG7yTRxOS65t5IsvTk4QHu1WQL_0jD4A9cCXurRueGjEgvTZMUa_gW42jqnz1xHQ0ouHjiefQzXxxwC96b_KVw0KskF2YlR04IUGfLuwe0FHEdFmqe-IyIYPlGvkp-XTDi1xNNOXzErrzVYdxfzcUEDF]--></g></svg>

<svg xmlns="http://www.w3.org/2000/svg" width="543" height="252" preserveAspectRatio="none" style="width:543px;height:252px"><rect width="300" height="39.789" x="7" y="206.58" fill="#3D176E" rx="2.5" ry="2.5" style="stroke:#000d19;stroke-width:.5"/><circle cx="22" cy="226.475" r="11" fill="#ADD1B2" style="stroke:#181818;stroke-width:1"/><path d="M24.969 232.115q-.578.297-1.219.438-.64.156-1.344.156-2.5 0-3.828-1.64-1.312-1.657-1.312-4.782t1.312-4.781q1.328-1.656 3.828-1.656.703 0 1.344.156.656.156 1.219.453v2.719q-.625-.578-1.219-.844-.594-.281-1.219-.281-1.343 0-2.031 1.078-.688 1.062-.688 3.156 0 2.094.688 3.172.688 1.062 2.031 1.062.625 0 1.219-.265.594-.281 1.219-.86v2.72Z"/><text x="41" y="232.36" fill="#D9B8FF" font-family="Helvetica" font-size="17" textLength="258">kubernetes_controller_revision</text><rect width="239" height="39.789" x="174.5" y="7" fill="#3D176E" rx="2.5" ry="2.5" style="stroke:#000d19;stroke-width:.5"/><circle cx="189.5" cy="26.895" r="11" fill="#ADD1B2" style="stroke:#181818;stroke-width:1"/><path d="M192.469 32.535q-.578.297-1.219.438-.64.156-1.344.156-2.5 0-3.828-1.64-1.312-1.657-1.312-4.782t1.312-4.781q1.328-1.656 3.828-1.656.703 0 1.344.156.656.156 1.219.453v2.719q-.625-.578-1.219-.844-.594-.281-1.219-.281-1.344 0-2.031 1.078-.688 1.062-.688 3.156 0 2.094.688 3.172.688 1.062 2.031 1.062.625 0 1.219-.265.594-.281 1.219-.86v2.72Z"/><text x="208.5" y="32.78" fill="#D9B8FF" font-family="Helvetica" font-size="17" textLength="197">kubernetes_namespace</text><rect width="175" height="39.789" x="361.5" y="206.58" fill="#3D176E" rx="2.5" ry="2.5" style="stroke:#000d19;stroke-width:.5"/><circle cx="376.5" cy="226.475" r="11" fill="#ADD1B2" style="stroke:#181818;stroke-width:1"/><path d="M379.469 232.115q-.578.297-1.219.438-.64.156-1.344.156-2.5 0-3.828-1.64-1.312-1.657-1.312-4.782t1.312-4.781q1.328-1.656 3.828-1.656.703 0 1.344.156.656.156 1.219.453v2.719q-.625-.578-1.219-.844-.594-.281-1.219-.281-1.344 0-2.031 1.078-.688 1.062-.688 3.156 0 2.094.688 3.172.688 1.062 2.031 1.062.625 0 1.219-.265.594-.281 1.219-.86v2.72Z"/><text x="395.5" y="232.36" fill="#D9B8FF" font-family="Helvetica" font-size="17" textLength="133">kubernetes_pod</text><rect width="243" height="39.789" x="172.5" y="106.79" fill="#3D176E" rx="2.5" ry="2.5" style="stroke:#000d19;stroke-width:.5"/><circle cx="187.5" cy="126.684" r="11" fill="#ADD1B2" style="stroke:#181818;stroke-width:1"/><path d="M190.469 132.325q-.578.297-1.219.438-.64.156-1.344.156-2.5 0-3.828-1.64-1.312-1.657-1.312-4.782t1.312-4.781q1.328-1.656 3.828-1.656.703 0 1.344.156.656.156 1.219.453v2.719q-.625-.579-1.219-.844-.594-.281-1.219-.281-1.344 0-2.031 1.078-.688 1.062-.688 3.156 0 2.094.688 3.172.688 1.062 2.031 1.062.625 0 1.219-.265.594-.281 1.219-.86v2.72Z"/><text x="206.5" y="132.57" fill="#D9B8FF" font-family="Helvetica" font-size="17" textLength="201">kubernetes_stateful_set</text><path fill="none" d="M230.73 47.29C202.3 59.52 171.48 78.5 155 106.79c-16.77 28.81-11.55 68.6-5.43 93.99" style="stroke:#1a83af;stroke-width:2"/><path fill="#1A83AF" d="m150.96 205.28 1.664-9.707-2.893 4.86-4.861-2.893 6.09 7.74z" style="stroke:#1a83af;stroke-width:2"/><path fill="none" d="M353.16 47.21c28.69 12.46 60.96 31.65 79.84 59.58 18.86 27.91 20.26 68.03 18.74 93.73" style="stroke:#1a83af;stroke-width:2"/><path fill="#1A83AF" d="m451.33 205.4 4.633-8.691-4.276 3.704-3.704-4.276 3.347 9.263z" style="stroke:#1a83af;stroke-width:2"/><path fill="none" d="M294 47.22v53.31" style="stroke:#1a83af;stroke-width:2"/><path fill="#1A83AF" d="m294 105.41 4-9-4 4-4-4 4 9z" style="stroke:#1a83af;stroke-width:2"/><path fill="none" d="M266.93 147.01c-22.51 16.07-54.6 38.97-78.3 55.89" style="stroke:#1a83af;stroke-width:2"/><path fill="#1A83AF" d="m185.01 206.2 9.647-1.986-5.581-.924.924-5.581-4.99 8.491z" style="stroke:#1a83af;stroke-width:2"/><path fill="none" d="M324.62 147.01c25.58 16.14 62.08 39.16 88.93 56.1" style="stroke:#1a83af;stroke-width:2"/><path fill="#1A83AF" d="m417.44 206.2-5.472-8.189 1.245 5.519-5.518 1.245 9.745 1.425z" style="stroke:#1a83af;stroke-width:2"/></svg>
